hosted_logos/roadie.svg

<svg xmlns="http://www.w3.org/2000/svg" role="img" viewBox="-2.48 -2.48 128.83 35.58"><title>Roadie (member) logo</title><path fill="#F97316" d="M44.3238 25.5865l-2.1201-4.5977h-2.194v4.5977h-5.8672V7.88614h8.5666c2.4077 0 4.2669.55262 5.5776 1.65786 1.3107 1.1052 1.966 2.6645 1.966 4.6778 0 1.2819-.2403 2.3974-.7211 3.3465-.4807.9491-1.173 1.7031-2.0769 2.2619l3.476 5.7563h-6.6069zm-4.3141-9.0351h2.6994c.641 0 1.132-.189 1.473-.567.341-.378.5115-.9039.5115-1.5777 0-.6574-.1725-1.1669-.5177-1.5285-.3451-.3615-.834-.5423-1.4668-.5423h-2.6994v4.2155zm19.352-4.9797c1.5613 0 2.9316.2917 4.1108.8751 1.1792.5834 2.0872 1.4093 2.7241 2.4776.6368 1.0682.9552 2.3173.9552 3.7471 0 1.4298-.3184 2.6789-.9552 3.7472-.6369 1.0682-1.5449 1.8961-2.7241 2.4837-1.1792.5875-2.5495.8813-4.1108.8813-1.5613 0-2.9336-.2938-4.1169-.8813-1.1833-.5876-2.0934-1.4155-2.7302-2.4837-.6369-1.0683-.9553-2.3174-.9553-3.7472 0-1.4298.3184-2.6789.9553-3.7471.6368-1.0683 1.5448-1.8942 2.724-2.4776 1.1792-.5834 2.5536-.8751 4.1231-.8751zm0 4.499c-.6245 0-1.1258.2445-1.5038.7334-.378.4889-.567 1.1361-.567 1.9414 0 .8053.189 1.4524.567 1.9413.378.489.8793.7334 1.5038.7334.6246 0 1.1238-.2444 1.4977-.7334.3738-.4889.5608-1.136.5608-1.9413 0-.8053-.189-1.4525-.567-1.9414-.378-.4889-.8752-.7334-1.4915-.7334zm16.2705-4.5484c2.0051 0 3.5684.45 4.6901 1.3498 1.1217.8998 1.6825 2.1591 1.6825 3.7779v8.9365h-5.5837V24.095c-.8382 1.1587-2.1324 1.738-3.8827 1.738-1.4463 0-2.5783-.3903-3.3959-1.171-.8176-.7806-1.2264-1.8366-1.2264-3.1678 0-1.3641.454-2.3995 1.362-3.1062.908-.7067 2.2372-1.0765 3.9875-1.1093h3.1555c-.0164-.4849-.2054-.8588-.567-1.1217-.3616-.263-.8875-.3945-1.5777-.3945-.5424 0-1.1875.076-1.9353.2281-.7477.152-1.4996.3718-2.2556.6594l-1.2696-3.7841c1.1751-.4355 2.3481-.7683 3.5191-.9984 1.171-.2301 2.27-.3452 3.2972-.3452zm-1.134 10.7115c.3698 0 .7273-.0925 1.0724-.2774.3451-.1849.6286-.4458.8505-.7827v-1.2696h-1.9722c-.8053 0-1.2079.3698-1.2079 1.1094 0 .3862.1088.6861.3266.8998.2178.2136.528.3205.9306.3205zM98.904 6.85074V25.5865h-5.6824v-1.3929c-.9121 1.0601-2.079 1.5901-3.5006 1.5901-1.2655 0-2.3769-.2938-3.3342-.8813-.9574-.5876-1.6969-1.4237-2.2187-2.5084s-.7827-2.3502-.7827-3.7965c0-1.4133.2527-2.6501.758-3.7101.5054-1.0601 1.2244-1.8777 2.1571-2.4529.9327-.5752 2.0194-.8628 3.2603-.8628.7395 0 1.4216.1396 2.0461.419s1.1628.678 1.6147 1.1957V6.85074h5.6824zM91.1878 21.4202c.6163 0 1.1094-.2444 1.4791-.7334.3698-.4889.5547-1.136.5547-1.9413 0-.8053-.1849-1.4525-.5547-1.9414-.3697-.4889-.8628-.7334-1.4791-.7334-.6245 0-1.1258.2445-1.5038.7334-.378.4889-.567 1.1361-.567 1.9414 0 .8053.189 1.4524.567 1.9413.378.489.8793.7334 1.5038.7334zm16.2952 4.1663h-5.67V11.7812h5.67v13.8053zM104.66 4.96484c.847 0 1.539.26912 2.077.80737.538.53824.808 1.22645.808 2.06462 0 .83818-.27 1.52844-.808 2.07079-.538.54238-1.23.81348-2.077.81348-.838 0-1.526-.2691-2.064-.80731-.539-.53824-.808-1.23056-.808-2.07696 0-.83817.269-1.52638.808-2.06462.538-.53825 1.226-.80737 2.064-.80737zm11.969 6.60686c1.512 0 2.823.3122 3.932.9367 1.109.6246 1.96 1.512 2.551 2.6625.592 1.1504.888 2.5022.888 4.0553 0 .3205-.008.5629-.025.7272h-8.985c.189.5424.478.9512.869 1.2265.39.2753.864.4129 1.423.4129.995 0 1.927-.4109 2.798-1.2326l2.959 2.909c-.74.8217-1.636 1.4462-2.688 1.8735-1.051.4273-2.243.641-3.574.641-1.545 0-2.887-.2897-4.025-.869-1.138-.5793-2.005-1.399-2.6-2.4591-.596-1.06-.894-2.2967-.894-3.7101 0-1.4463.302-2.7077.906-3.7842.604-1.0764 1.467-1.9105 2.588-2.5022 1.122-.5916 2.414-.8874 3.877-.8874zm1.664 5.7563c.033-.567-.107-1.0354-.419-1.4052-.312-.3698-.711-.5547-1.196-.5547-.468 0-.858.1767-1.171.53-.312.3534-.53.83-.653 1.4299h3.439zM13.2866 26.835v-1.1942l13.3071-7.6636-3.4188-1.9711-9.8883 5.6925v-1.19l13.2294-7.6228-3.4147-1.9711-9.8147 5.6517v-1.1942l13.348-7.68813L13.2866 0 0 7.68407V23.0604l13.2866 7.6841 13.348-7.6841-3.3943-1.9588-9.9537 5.7334z"/></svg>

<svg width="124" height="31" viewBox="0 0 124 31" fill="none" xmlns="http://www.w3.org/2000/svg">
<path d="M44.3238 25.5865L42.2037 20.9888H40.0097V25.5865H34.1425V7.88614H42.7091C45.1168 7.88614 46.976 8.43876 48.2867 9.544C49.5974 10.6492 50.2527 12.2085 50.2527 14.2218C50.2527 15.5037 50.0124 16.6192 49.5316 17.5683C49.0509 18.5174 48.3586 19.2714 47.4547 19.8302L50.9307 25.5865H44.3238ZM40.0097 16.5514H42.7091C43.3501 16.5514 43.8411 16.3624 44.1821 15.9844C44.5231 15.6064 44.6936 15.0805 44.6936 14.4067C44.6936 13.7493 44.5211 13.2398 44.1759 12.8782C43.8308 12.5167 43.3419 12.3359 42.7091 12.3359H40.0097V16.5514ZM59.3617 11.5717C60.923 11.5717 62.2933 11.8634 63.4725 12.4468C64.6517 13.0302 65.5597 13.8561 66.1966 14.9244C66.8334 15.9926 67.1518 17.2417 67.1518 18.6715C67.1518 20.1013 66.8334 21.3504 66.1966 22.4187C65.5597 23.4869 64.6517 24.3148 63.4725 24.9024C62.2933 25.4899 60.923 25.7837 59.3617 25.7837C57.8004 25.7837 56.4281 25.4899 55.2448 24.9024C54.0615 24.3148 53.1514 23.4869 52.5146 22.4187C51.8777 21.3504 51.5593 20.1013 51.5593 18.6715C51.5593 17.2417 51.8777 15.9926 52.5146 14.9244C53.1514 13.8561 54.0594 13.0302 55.2386 12.4468C56.4178 11.8634 57.7922 11.5717 59.3617 11.5717ZM59.3617 16.0707C58.7372 16.0707 58.2359 16.3152 57.8579 16.8041C57.4799 17.293 57.2909 17.9402 57.2909 18.7455C57.2909 19.5508 57.4799 20.1979 57.8579 20.6868C58.2359 21.1758 58.7372 21.4202 59.3617 21.4202C59.9863 21.4202 60.4855 21.1758 60.8594 20.6868C61.2332 20.1979 61.4202 19.5508 61.4202 18.7455C61.4202 17.9402 61.2312 17.293 60.8532 16.8041C60.4752 16.3152 59.978 16.0707 59.3617 16.0707ZM75.6322 11.5223C77.6373 11.5223 79.2006 11.9723 80.3223 12.8721C81.444 13.7719 82.0048 15.0312 82.0048 16.65V25.5865H76.4211V24.095C75.5829 25.2537 74.2887 25.833 72.5384 25.833C71.0921 25.833 69.9601 25.4427 69.1425 24.662C68.3249 23.8814 67.9161 22.8254 67.9161 21.4942C67.9161 20.1301 68.3701 19.0947 69.2781 18.388C70.1861 17.6813 71.5153 17.3115 73.2656 17.2787H76.4211C76.4047 16.7938 76.2157 16.4199 75.8541 16.157C75.4925 15.894 74.9666 15.7625 74.2764 15.7625C73.734 15.7625 73.0889 15.8385 72.3411 15.9906C71.5934 16.1426 70.8415 16.3624 70.0855 16.65L68.8159 12.8659C69.991 12.4304 71.164 12.0976 72.335 11.8675C73.506 11.6374 74.605 11.5223 75.6322 11.5223ZM74.4982 22.2338C74.868 22.2338 75.2255 22.1413 75.5706 21.9564C75.9157 21.7715 76.1992 21.5106 76.4211 21.1737V19.9041H74.4489C73.6436 19.9041 73.241 20.2739 73.241 21.0135C73.241 21.3997 73.3498 21.6996 73.5676 21.9133C73.7854 22.1269 74.0956 22.2338 74.4982 22.2338ZM98.904 6.85074V25.5865H93.2216V24.1936C92.3095 25.2537 91.1426 25.7837 89.721 25.7837C88.4555 25.7837 87.3441 25.4899 86.3868 24.9024C85.4294 24.3148 84.6899 23.4787 84.1681 22.394C83.6463 21.3093 83.3854 20.0438 83.3854 18.5975C83.3854 17.1842 83.6381 15.9474 84.1434 14.8874C84.6488 13.8273 85.3678 13.0097 86.3005 12.4345C87.2332 11.8593 88.3199 11.5717 89.5608 11.5717C90.3003 11.5717 90.9824 11.7113 91.6069 11.9907C92.2314 12.2701 92.7697 12.6687 93.2216 13.1864V6.85074H98.904ZM91.1878 21.4202C91.8041 21.4202 92.2972 21.1758 92.6669 20.6868C93.0367 20.1979 93.2216 19.5508 93.2216 18.7455C93.2216 17.9402 93.0367 17.293 92.6669 16.8041C92.2972 16.3152 91.8041 16.0707 91.1878 16.0707C90.5633 16.0707 90.062 16.3152 89.684 16.8041C89.306 17.293 89.117 17.9402 89.117 18.7455C89.117 19.5508 89.306 20.1979 89.684 20.6868C90.062 21.1758 90.5633 21.4202 91.1878 21.4202ZM107.483 25.5865H101.813V11.7812H107.483V25.5865ZM104.66 4.96484C105.507 4.96484 106.199 5.23396 106.737 5.77221C107.275 6.31045 107.545 6.99866 107.545 7.83683C107.545 8.67501 107.275 9.36527 106.737 9.90762C106.199 10.45 105.507 10.7211 104.66 10.7211C103.822 10.7211 103.134 10.452 102.596 9.91379C102.057 9.37555 101.788 8.68323 101.788 7.83683C101.788 6.99866 102.057 6.31045 102.596 5.77221C103.134 5.23396 103.822 4.96484 104.66 4.96484ZM116.629 11.5717C118.141 11.5717 119.452 11.8839 120.561 12.5084C121.67 13.133 122.521 14.0204 123.112 15.1709C123.704 16.3213 124 17.6731 124 19.2262C124 19.5467 123.992 19.7891 123.975 19.9534H114.99C115.179 20.4958 115.468 20.9046 115.859 21.1799C116.249 21.4552 116.723 21.5928 117.282 21.5928C118.277 21.5928 119.209 21.1819 120.08 20.3602L123.039 23.2692C122.299 24.0909 121.403 24.7154 120.351 25.1427C119.3 25.57 118.108 25.7837 116.777 25.7837C115.232 25.7837 113.89 25.494 112.752 24.9147C111.614 24.3354 110.747 23.5157 110.152 22.4556C109.556 21.3956 109.258 20.1589 109.258 18.7455C109.258 17.2992 109.56 16.0378 110.164 14.9613C110.768 13.8849 111.631 13.0508 112.752 12.4591C113.874 11.8675 115.166 11.5717 116.629 11.5717ZM118.293 17.328C118.326 16.761 118.186 16.2926 117.874 15.9228C117.562 15.553 117.163 15.3681 116.678 15.3681C116.21 15.3681 115.82 15.5448 115.507 15.8981C115.195 16.2515 114.977 16.7281 114.854 17.328H118.293Z" fill="#F97316"/>
<path d="M13.2866 26.835V25.6408L26.5937 17.9772L23.1749 16.0061L13.2866 21.6986V20.5086L26.516 12.8858L23.1013 10.9147L13.2866 16.5664V15.3722L26.6346 7.68407L13.2866 0L0 7.68407V23.0604L13.2866 30.7445L26.6346 23.0604L23.2403 21.1016L13.2866 26.835Z" fill="#F97316"/>
</svg>
